X: 84
T:Montagnarde de St. Gervais
C:Les Brayauds: Couleurs
M:3/8
L:1/8
K:C
c/e/|g2a|~ag2|f2e|dfe|cc/B/c/e/|\
g2a|~ag2|f2e|dfe|cec||
Bzc|dzg|f2e|dfe|cec|\
Bzc|dzg|f2e|dfe|cc/B/c/e/||
